share/icons/Flat-Remix-Blue-Dark/mimetypes/scalable/text-x-r.svg

<svg xmlns="http://www.w3.org/2000/svg" xmlns:xlink="http://www.w3.org/1999/xlink" width="36pt" height="36pt" version="1.1" viewBox="0 0 36 36"> <defs> <clipPath id="clip1"> <path d="M 20 2 L 31 2 L 31 13 L 20 13 Z M 20 2"/> </clipPath> <clipPath id="clip2"> <path d="M 20.515625 2.625 L 30.328125 12.4375 L 22.023438 12.4375 C 21.292969 12.4375 20.515625 11.660156 20.515625 10.929688 Z M 20.515625 2.625"/> </clipPath> <image id="image6" width="36" height="36" xlink:href="data:image/png;base64,iVBORw0KGgoAAAANSUhEUgAAACQAAAAkCAYAAADhAJiYAAAABmJLR0QA/wD/AP+gvaeTAAAAmklEQVRYhe3T0QqCQBBG4aOtYEoUvf9Lildltl00C4tkbBeTIP+BAUEYP1YW1Pcqh53B9kbgaVPcwQF0tAmGSrMZ6AKcDQXw+AUVHEAtcAUaewYYgYmC3+cBCkAPnDJQMcoDVNnebgEqQnmAclTz4d0I3P4JStc9AjXvk4qLWQV53LLeEOl05gw4A3dgcPiuUkoppZRSSqk99gLWvSJpuDnlsAAAAABJRU5ErkJggg=="/> </defs> <g> <path style="fill:rgb(30.980%,78.431%,80.784%)" d="M 7.347656 3.152344 C 6.675781 3.152344 6.042969 3.785156 6.042969 4.457031 L 6.042969 31.847656 C 6.042969 32.480469 6.714844 33.152344 7.347656 33.152344 L 28.21875 33.152344 C 28.851562 33.152344 29.523438 32.480469 29.523438 31.847656 L 29.523438 11.632812 L 21.042969 3.152344 Z M 7.347656 3.152344"/> <g clip-path="url(#clip1)"> <g clip-path="url(#clip2)"> <use xlink:href="#image6"/> </g> </g> <path style="fill:rgb(39.607%,81.176%,83.137%)" d="M 21.042969 3.152344 L 29.523438 11.632812 L 22.347656 11.632812 C 21.714844 11.632812 21.042969 10.960938 21.042969 10.328125 Z M 21.042969 3.152344"/> <path style="fill:rgb(100.000%,100.000%,100.000%)" d="M 18 14.691406 C 13.71875 14.691406 10.25 17.007812 10.25 19.859375 C 10.25 22.109375 12.449219 24.015625 15.457031 24.726562 L 15.457031 23.015625 C 13.894531 22.3125 12.832031 21.160156 12.832031 19.859375 C 12.832031 17.71875 15.582031 15.984375 18.96875 15.984375 C 22.355469 15.984375 25.105469 17.71875 25.105469 19.859375 C 25.105469 21.535156 23.480469 23.015625 21.125 23.558594 C 21.3125 23.871094 21.503906 24.179688 21.691406 24.484375 C 24.140625 23.617188 25.75 21.835938 25.75 19.859375 C 25.75 17.007812 22.28125 14.691406 18 14.691406 Z M 18 14.691406"/> <path style="fill:rgb(100.000%,100.000%,100.000%)" d="M 16.0625 17.277344 L 16.0625 26.960938 L 18 26.960938 L 18 23.730469 L 18.644531 23.730469 L 20.582031 26.960938 L 22.519531 26.960938 L 20.582031 23.730469 L 20.441406 23.507812 C 21.652344 23.046875 22.519531 21.878906 22.519531 20.503906 C 22.519531 18.722656 21.074219 17.277344 19.289062 17.277344 M 18 19.214844 L 19.289062 19.214844 C 20.003906 19.214844 20.582031 19.792969 20.582031 20.503906 C 20.582031 21.21875 20 21.792969 19.289062 21.792969 L 18 21.792969 L 18 19.210938 M 18 19.214844"/> </g> </svg>

<svg width="36pt" height="36pt" version="1.1" viewBox="0 0 36 36" xmlns="http://www.w3.org/2000/svg"><defs><filter id="a" x="-.192" y="-.192" width="1.384" height="1.384" color-interpolation-filters="sRGB"><feGaussianBlur stdDeviation="0.67843748"/></filter></defs><path d="m7.3477 3.9022c-0.67188 0-1.3047 0.63281-1.3047 1.3047v27.391c0 0.63281 0.67188 1.3047 1.3047 1.3047h20.871c0.63281 0 1.3047-0.67188 1.3047-1.3047v-20.215l-8.4805-8.4805z" opacity=".3"/><path d="m7.3477 3.1523c-0.67188 0-1.3047 0.63281-1.3047 1.3047v27.391c0 0.63281 0.67188 1.3047 1.3047 1.3047h20.871c0.63281 0 1.3047-0.67188 1.3047-1.3047v-20.215l-8.4805-8.4805z" fill="#4ec7cd"/><path d="m20.668 3.5272 8.4805 8.4805h-7.1758c-0.63281 0-1.3047-0.67187-1.3047-1.3047z" filter="url(#a)" opacity=".2"/><path d="m21.043 3.1523 8.4805 8.4805h-7.1758c-0.63281 0-1.3047-0.67187-1.3047-1.3047z" fill="#64ced3"/><path d="m18 14.691c-4.2812 0-7.75 2.3164-7.75 5.168 0 2.25 2.1992 4.1562 5.207 4.8672v-1.7109c-1.5625-0.70312-2.625-1.8555-2.625-3.1562 0-2.1406 2.75-3.875 6.1367-3.875s6.1367 1.7344 6.1367 3.875c0 1.6758-1.625 3.1562-3.9805 3.6992 0.1875 0.3125 0.37891 0.62109 0.56641 0.92578 2.4492-0.86719 4.0586-2.6484 4.0586-4.625 0-2.8516-3.4688-5.168-7.75-5.168z" fill="#fff"/><path d="m16.062 17.277v9.6836h1.9375v-3.2305h0.64453l1.9375 3.2305h1.9375l-1.9375-3.2305-0.14062-0.22266c1.2109-0.46094 2.0781-1.6289 2.0781-3.0039 0-1.7812-1.4453-3.2266-3.2305-3.2266m-1.2891 1.9375h1.2891c0.71484 0 1.293 0.57812 1.293 1.2891 0 0.71484-0.58203 1.2891-1.293 1.2891h-1.2891v-2.582" fill="#fff"/></svg>
